icons/codersrank.svg

<?xml version="1.0" encoding="UTF-8"?>
<svg width="256px" height="164px" viewBox="0 0 256 164" version="1.1" xmlns="http://www.w3.org/2000/svg" xmlns:xlink="http://www.w3.org/1999/xlink" preserveAspectRatio="xMidYMid">
    <g>
				<path d="M139.539078,0.229226287 L9.01110668,82.3993233 C2.8630435,86.1175452 -0.141748171,90.2806109 0.00513414328,94.8927169 L0.00513414328,107.3987 C0.152016542,112.015003 3.22815107,116.106726 9.23772518,119.678065 L73.8365016,156.965201 C74.2200744,157.189721 74.6481315,157.32779 75.0908769,157.369337 C75.5332026,157.410884 75.9793053,157.355068 76.3981299,157.205668 C76.8165348,157.056687 77.1975896,156.817899 77.5144358,156.505669 C77.8308624,156.193858 78.0751067,155.816581 78.2303824,155.399854 L92.7339659,120.349528 L61.9726038,102.933477 C61.0858541,102.473525 60.340531,101.781919 59.8155315,100.93168 C59.4223065,100.292952 59.1604362,99.582041 59.0450286,98.8409146 C58.9292014,98.0997882 58.9627745,97.3431342 59.1428103,96.6150174 C59.3228461,95.8864809 59.6459873,95.2015895 60.0937687,94.5997915 C60.54155,93.9979935 61.1047389,93.4910395 61.750182,93.1091454 L118.22435,58.4994656 L141.511498,1.79457086 C141.604664,1.52898238 141.613057,1.24101743 141.535839,0.970409765 C141.45862,0.699806302 141.298729,0.459897054 141.079244,0.283782591 C140.861019,0.109836531 140.592854,0.0106304247 140.314197,0 C140.035121,-0.00901647533 139.76066,0.071062946 139.530685,0.229226287 L139.539078,0.229226287 Z" fill="#19223C"></path>
				<path d="M246.763198,46.0018754 L183.049829,7.37618014 C182.680524,7.14582664 182.265896,6.99734956 181.834062,6.94069494 C181.402648,6.88408228 180.963679,6.92063501 180.547373,7.04787709 C180.131066,7.17511918 179.746654,7.39015495 179.420575,7.67842207 C179.094077,7.96673115 178.833466,8.32155696 178.655948,8.71910454 L163.715914,43.7692636 L194.036629,61.8567766 C194.90953,62.3309968 195.635548,63.0402287 196.143341,63.9047363 C196.651974,64.7721815 196.920139,65.7596506 196.920139,66.7647456 C196.920139,67.7702603 196.651974,68.7577294 196.143341,69.6247549 C195.639745,70.4880035 194.911628,71.1989141 194.036629,71.6811079 L137.126011,105.170285 L112.953371,161.434621 C112.719199,161.701947 112.599595,162.050688 112.619739,162.405723 C112.640302,162.760339 112.799355,163.092713 113.062484,163.331502 C113.191321,163.449008 113.3424,163.538816 113.506908,163.597149 C113.670997,163.655063 113.845157,163.679823 114.019318,163.669331 C114.193059,163.659259 114.363022,163.614775 114.519557,163.537976 C114.676092,163.461178 114.81542,163.353744 114.929988,163.222389 L156.682347,137.992197 L173.162548,161.661239 C173.522619,162.206802 174.011528,162.654584 174.586467,162.965555 C175.160987,163.276945 175.803492,163.441454 176.456909,163.444811 L216.010229,163.444811 C216.731212,163.447329 217.439185,163.250087 218.055251,162.875327 C218.671738,162.500567 219.171977,161.962978 219.501833,161.321312 C219.840502,160.678387 220.001233,159.956145 219.966401,159.229707 C219.931569,158.503688 219.703271,157.799912 219.304591,157.191819 L192.496462,116.106726 L246.771591,83.2890107 C252.923864,79.5665921 256,75.3993298 256,70.7830272 L256,58.5036622 C256,53.8873596 252.923864,49.7242939 246.767395,46.0018754 L246.763198,46.0018754 Z" fill="#67A4AC"></path>
		</g>
</svg>

<svg xmlns="http://www.w3.org/2000/svg" viewBox="0 0 256 163.672">
  <path fill="#19223c" d="M139.54.23 9.01 82.4C2.863 86.118-.142 90.281.005 94.893V107.4c.147 4.617 3.223 8.708 9.233 12.28l64.599 37.287a3.047 3.047 0 0 0 4.393-1.565l14.504-35.05-30.761-17.417a5.524 5.524 0 0 1-2.157-2.002 5.645 5.645 0 0 1 .278-6.332 5.654 5.654 0 0 1 1.656-1.49l56.474-34.61 23.288-56.705a1.36 1.36 0 0 0-.433-1.51 1.307 1.307 0 0 0-.765-.284 1.308 1.308 0 0 0-.783.229z"/>
  <path fill="#67a4ac" d="M246.763 46.003 183.05 7.377a3.046 3.046 0 0 0-4.394 1.343l-14.94 35.05 30.32 18.087a5.485 5.485 0 0 1 2.107 2.048 5.655 5.655 0 0 1 0 5.72 5.529 5.529 0 0 1-2.106 2.057l-56.911 33.489-24.173 56.264a1.357 1.357 0 0 0 .11 1.897 1.306 1.306 0 0 0 1.867-.109l41.752-25.23 16.48 23.669a3.967 3.967 0 0 0 3.295 1.784h39.553a3.905 3.905 0 0 0 3.492-2.124 4.07 4.07 0 0 0-.197-4.13l-26.809-41.085 54.276-32.817C252.924 79.567 256 75.4 256 70.784v-12.28c0-4.616-3.076-8.779-9.233-12.501z"/>
</svg>
